X:1
T:Blow the Man Down
M:6/8
L:1/8
K:D
 F| ABA FDF| ABA F2 D/2F/2| A3 B3| G3/2 F/2 G E2 F| GAG ECE| GFE B3|\
 AAA A2 G| F3/2 E/2 F D2|
